X:1
T:E minor Daniel Read, 1786 (Revised 1804)
T:Isaac Watts, 1719 (Psalm 73)  88.88 (L.M.)
T:Greenwich
T:No copyright. Transcribed from the Columbian Harmonist, 1807.
%%score [ 1 2 3 4 ]
L:1/8
M:4/4
K:G
V:1 treble nm="Tr." snm="Tr."
V:2 treble nm="C." snm="C."
V:3 treble-8 nm="T." snm="T."
V:4 bass nm="B." snm="B."
V:1
 E8 | G2 B2 B2 B2 | c4 B4 | B8 | B4 (B3 c | d2) e2 B2 c2 | B4 (A3 G) | F8 | G4 G2 G2 | %9
w: |||||||||
 A2 B2 B2 c2 | B8 | e4 e2 e2 | (e4 B2) B2 | c4 B4 | B8 |: z8 | z8 | z4 z2 G2 | B2 B2 B2 d2 | %19
w: ||||||||But,|O, their end, their|
 B2 B2 B>A G>A | B2 B2 B2 ^d2 | e6 B2 | B6 B2 | c2 cB A2 A2 | BA Bc d2 d2 | (e2 dc) B2 c2 | B4 B4 | %27
w: dread- ful end! * Thy *|sanc- tu- a- ry|taught me|so; On|slip- pery * rocks I|see * them * stand, and|fie- ry * bil- lows|roll be-|
 B8 :| %28
w: low.|
V:2
 E8 | E2 EF G2 B2 | A4 F4 | G8 | G4 F4- | F2 F2 E2 ^D2 | (E2 G2) (F2 E2) | ^D8 | E4 E2 E2 | %9
w: 1.~Lord,|what a * thought- less|wretch was|I,|To mourn,~|* and mur- mur,|and * re- *|pine,|To see the|
 F2 F2 G2 A2 | B8 | G4 G2 G2 | (G3 F E2) E2 | E4 ^D4 | E8 |: z8 | z8 | z8 | z4 z2 D2 | %19
w: wick- ed placed on|high,|In pride and|robes * * of|hon- or|shine.||||But,|
 E2 E2 E2 G2 | F2 F2 F2 F2 | G2 G2 G2 G2 | F2 F2 F2 B2 | A2 A2 A2 A2 | G2 G2 G2 A2 | %25
w: O, their end, their|dread- ful end! Thy|sanc- tu- a- ry|taught me so; On|slip- pery rocks I|see them stand, and|
 (B2 BA) G2 F2 | E4 ^D4 | E8 :| %28
w: fie- ry * bil- lows|roll be-|low.|
V:3
 B8 | B2 e2 d2 B2 | e4 (d2 ef) | e8 | e4 (d3 e | d2) c2 B2 A2 | G4 A4 | B8 | B4 B2 Bc | %9
w: |||||||||
 d2 B2 d2 d2 | e8 | B4 c2 BA | (B3 A G2) B2 | (A2 G2) F4 | E8 |: z8 | z4 z2 G2 | B2 B2 B2 d2 | %18
w: |||||||But,|O, their end, their|
 B2 B2 B>A G>A | B2 B2 B2 e2 | d6 c2 | B6 Bc | d2 d2 d2 B2 | e2 e2 e2 dc | B6 c2 | B6 A2 | G4 F4 | %27
w: dread- ful end! * Thy *|sanc- tu- a- ry|taught me|so; On *|slip- pery rocks I|see them stand, and *|fie- ry|bil- lows|roll be-|
 E8 :| %28
w: low.|
V:4
 E,8 | E,2 E,2 B,2 G,2 | A,4 B,4 | E,8 | E,4 B,4- | B,2 A,2 G,2 F,2 | E,4 F,4 | B,,8 | %8
w: ||||||||
 E,4 E,2 E,2 | D,2 D,2 G,2 F,2 | E,8 | E,4 E,2 E,2 | (E,3 F, G,2) E,2 | A,,4 B,,4 | E,8 |: z4 E,4 | %16
w: |||||||But,|
 E,2 E,2 E,2 G,2 | E,2 E,2 E,2 D,2 | G,6 F,2 | E,6 E,2 | B,,6 B,,2 | E,6 E,2 | B,2 B,2 B,2 G,2 | %23
w: O, their end, their|dread- ful end! Thy|sanc- tu-|a- ry|taught me|so; On|slip- pery rocks I|
 A,2 A,2 A,2 F,2 | G,6 F,2 | (E,3 F, G,2) A,2 | B,4 B,,4 | E,8 :| %28
w: see them stand, and|fie- ry|bil- * * lows|roll be-|low.|

